Origami/32x32/apps/solaar.svg

<svg width="32" height="32" version="1" xmlns="http://www.w3.org/2000/svg">
 <rect transform="matrix(0,-1,-1,0,0,0)" x="-31" y="-30" width="28" height="28" rx="1.4" ry="1.4" style="opacity:.2"/>
 <rect transform="matrix(0,-1,-1,0,0,0)" x="-30" y="-30" width="28" height="28" rx="1.4" ry="1.4" style="fill:#029499"/>
 <path d="m12.298828 8.0896878-2.5976561 1.5 1.9179691 3.3222652a6 6 0 0 0 -1.529297 3.087891h-4.089844v3h4.349609a6 6 0 0 0 1.636719 2.451172l-2.2851561 3.958984 2.5976561 1.5 2.34961-4.070312a6 6 0 0 0 1.351562 0.160156 6 6 0 0 0 1.349609 -0.162109l2.351563 4.072265 2.597656-1.5-2.285156-3.958984a6 6 0 0 0 1.634766 -2.451172h4.351562v-3h-4.085938a6 6 0 0 0 -1.53125 -3.091797l1.916016-3.3183592-2.597656-1.5-1.851563 3.2050782a6 6 0 0 0 -1.849609 -0.294922 6 6 0 0 0 -1.847656 0.298828l-1.853516-3.2089842zm3.701172 4.9101562a4 4 0 0 1 4 4 4 4 0 0 1 -4 4 4 4 0 0 1 -4 -4 4 4 0 0 1 4 -4z" style="opacity:.2"/>
 <path d="m12.298828 7.0898438l-2.5976561 1.5 1.9179691 3.3222652a6 6 0 0 0 -1.529297 3.087891h-4.089844v3h4.349609a6 6 0 0 0 1.636719 2.451172l-2.2851561 3.958984 2.5976561 1.5 2.34961-4.070312a6 6 0 0 0 1.351562 0.160156 6 6 0 0 0 1.349609 -0.162109l2.351563 4.072265 2.597656-1.5-2.285156-3.958984a6 6 0 0 0 1.634766 -2.451172h4.351562v-3h-4.085938a6 6 0 0 0 -1.53125 -3.091797l1.916016-3.3183592-2.597656-1.5-1.851563 3.2050782a6 6 0 0 0 -1.849609 -0.294922 6 6 0 0 0 -1.847656 0.298828l-1.853516-3.2089842zm3.701172 4.9101562a4 4 0 0 1 4 4 4 4 0 0 1 -4 4 4 4 0 0 1 -4 -4 4 4 0 0 1 4 -4z" style="fill:#ffffff"/>
 <path d="M 3.4003906 2 C 2.6247906 2 2 2.6247906 2 3.4003906 L 2 4.4003906 C 2 3.6247906 2.6247906 3 3.4003906 3 L 28.599609 3 C 29.375209 3 30 3.6247906 30 4.4003906 L 30 3.4003906 C 30 2.6247906 29.375209 2 28.599609 2 L 3.4003906 2 z" style="fill:#ffffff;opacity:.2"/>
</svg>

<svg xmlns="http://www.w3.org/2000/svg" width="32" height="32" version="1">
 <rect style="opacity:0.2" width="28" height="28" x="-31" y="-30" rx="1.4" ry="1.4" transform="matrix(0,-1,-1,0,0,0)"/>
 <rect style="fill:#029499" width="28" height="28" x="-30" y="-30" rx="1.4" ry="1.4" transform="matrix(0,-1,-1,0,0,0)"/>
 <path style="opacity:0.2" d="m 12.298828,8.0896878 -2.5976561,1.5 1.9179691,3.3222652 a 6,6 0 0 0 -1.529297,3.087891 l -4.089844,0 0,3 4.349609,0 a 6,6 0 0 0 1.636719,2.451172 L 9.7011719,25.41 l 2.5976561,1.5 2.34961,-4.070312 A 6,6 0 0 0 16,22.999844 6,6 0 0 0 17.349609,22.837735 l 2.351563,4.072265 2.597656,-1.5 -2.285156,-3.958984 a 6,6 0 0 0 1.634766,-2.451172 l 4.351562,0 0,-3 -4.085938,0 a 6,6 0 0 0 -1.53125,-3.091797 l 1.916016,-3.3183592 -2.597656,-1.5 -1.851563,3.2050782 A 6,6 0 0 0 16,10.999844 6,6 0 0 0 14.152344,11.298672 L 12.298828,8.0896878 Z M 16,12.999844 a 4,4 0 0 1 4,4 4,4 0 0 1 -4,4 4,4 0 0 1 -4,-4 4,4 0 0 1 4,-4 z"/>
 <path style="fill:#ffffff" d="M 12.298828 7.0898438 L 9.7011719 8.5898438 L 11.619141 11.912109 A 6 6 0 0 0 10.089844 15 L 6 15 L 6 18 L 10.349609 18 A 6 6 0 0 0 11.986328 20.451172 L 9.7011719 24.410156 L 12.298828 25.910156 L 14.648438 21.839844 A 6 6 0 0 0 16 22 A 6 6 0 0 0 17.349609 21.837891 L 19.701172 25.910156 L 22.298828 24.410156 L 20.013672 20.451172 A 6 6 0 0 0 21.648438 18 L 26 18 L 26 15 L 21.914062 15 A 6 6 0 0 0 20.382812 11.908203 L 22.298828 8.5898438 L 19.701172 7.0898438 L 17.849609 10.294922 A 6 6 0 0 0 16 10 A 6 6 0 0 0 14.152344 10.298828 L 12.298828 7.0898438 z M 16 12 A 4 4 0 0 1 20 16 A 4 4 0 0 1 16 20 A 4 4 0 0 1 12 16 A 4 4 0 0 1 16 12 z"/>
 <path style="fill:#ffffff;opacity:0.2" d="M 3.4003906 2 C 2.6247906 2 2 2.6247906 2 3.4003906 L 2 4.4003906 C 2 3.6247906 2.6247906 3 3.4003906 3 L 28.599609 3 C 29.375209 3 30 3.6247906 30 4.4003906 L 30 3.4003906 C 30 2.6247906 29.375209 2 28.599609 2 L 3.4003906 2 z"/>
</svg>
